brandFactory_export/1.Light/Turismo maleta _1Light.svg

<?xml version="1.0" encoding="UTF-8"?>
<svg width="24px" height="24px" viewBox="0 0 24 24" version="1.1" xmlns="http://www.w3.org/2000/svg" xmlns:xlink="http://www.w3.org/1999/xlink">
    <title>1.Light/Turismo maleta _1Light</title>
    <g id="Symbols" stroke="none" stroke-width="1" fill="none" fill-rule="evenodd">
        <g id="1.Light/Turismo-maleta-_1Light" fill="#5CB615" fill-rule="nonzero">
            <path d="M17.8655462,21.2537815 L17.8655462,6.22857143 C17.8655462,6.01344538 17.707563,5.83529412 17.6436975,5.81848739 L7.17983193,5.81848739 C7.12268908,5.83193277 6.96470588,6.01008403 6.96470588,6.22521008 L6.96470588,21.2504202 C6.96470588,21.492437 7.12268908,21.6537815 7.17983193,21.6571924 L17.6504202,21.6571924 C17.7042017,21.6605042 17.8655462,21.492437 17.8655462,21.2537815 Z M9.95630252,0.98487395 L9.95630252,4.8302521 L14.8773109,4.8302521 L14.8773109,0.98487395 L9.95630252,0.98487395 L9.95630252,0.98487395 Z M17.6504202,4.83697479 C18.2588235,4.83697479 18.8134454,5.50252101 18.8134454,6.22857143 L18.8134454,21.2537815 C18.8134454,21.9966387 18.2722689,22.6453782 17.6504202,22.6453782 L16.4605042,22.6453782 C16.4605042,22.6655462 16.4638655,22.6789916 16.4638655,22.6991597 C16.4638655,23.5529412 15.8151261,23.6201681 15.6504202,23.6201681 L15.5731092,23.6201681 C15.4016807,23.6168067 14.7596639,23.5495798 14.7596639,22.692437 C14.7596639,22.6722689 14.7630252,22.6621849 14.7630252,22.6420168 L10.1109244,22.6420168 C10.1109244,22.6621849 10.1176471,22.6756303 10.1176471,22.6957983 C10.1176471,23.5495798 9.46554622,23.6168067 9.30420168,23.6168067 L9.22352941,23.6168067 C9.05210084,23.6134454 8.41008403,23.5462185 8.41008403,22.6890756 C8.41008403,22.6689076 8.41344538,22.6588235 8.41344538,22.6386555 L7.17647059,22.6386555 C6.55798319,22.6386555 6.01344538,21.9865546 6.01344538,21.2470588 L6.01344538,6.23193277 C6.01344538,5.50252101 6.56806723,4.84033613 7.17647059,4.84033613 L9.00168067,4.84033613 L9.00168067,0.823529412 C9.00168067,0.386554622 9.38151261,0 9.81848739,0 L15.005042,0 C15.4386555,0 15.8218487,0.383193277 15.8218487,0.823529412 L15.8218487,4.83697479 L17.6504202,4.83697479 Z M14.9613445,18.7327731 C14.9882353,18.6521008 15.0016807,18.5680672 15.0016807,18.4840336 L15.0016807,12.2890756 L9.83529412,12.2890756 L9.83529412,18.4840336 C9.83529412,18.5882353 9.85546218,18.6756303 9.87563025,18.7327731 L14.9613445,18.7327731 L14.9613445,18.7327731 Z M9.87563025,8.87731092 C9.8487395,8.95798319 9.83193277,9.04201681 9.83193277,9.12605042 L9.83193277,11.3008403 L14.994958,11.3008403 L14.994958,9.12605042 C14.994958,9.02857143 14.9747899,8.93781513 14.9512605,8.87731092 L9.87563025,8.87731092 Z M15.1193277,7.89579832 C15.6403361,7.89579832 15.9495798,8.52436975 15.9495798,9.12941176 L15.9495798,18.4840336 C15.9495798,19.0823529 15.6571429,19.7176471 15.1193277,19.7176471 L9.71428571,19.7176471 C9.17647059,19.7176471 8.88403361,19.0823529 8.88403361,18.4840336 L8.88403361,9.12941176 C8.88403361,8.5210084 9.19327731,7.89579832 9.71428571,7.89579832 L15.1193277,7.89579832 Z" id="Turismo-maleta-_1Light"></path>
        </g>
    </g>
</svg>

<svg width="24" height="24" viewBox="0 0 24 24" xmlns="http://www.w3.org/2000/svg"><path d="M17.866 21.254V6.229c0-.216-.158-.394-.222-.41H7.18c-.057.013-.215.191-.215.406V21.25c0 .242.158.404.215.407h10.47c.054.004.216-.165.216-.403zM9.956.984V4.83h4.921V.985h-4.92zm7.694 3.853c.609 0 1.163.666 1.163 1.392v15.025c0 .743-.54 1.391-1.163 1.391h-1.19c0 .02.004.034.004.054 0 .854-.649.921-.814.921h-.077c-.171-.003-.813-.07-.813-.928 0-.02.003-.03.003-.05h-4.652c0 .02.007.034.007.054 0 .854-.652.92-.814.92h-.08c-.172-.003-.814-.07-.814-.927 0-.02.003-.03.003-.05H7.176c-.618 0-1.163-.652-1.163-1.392V6.232c0-.73.555-1.392 1.163-1.392h1.826V.824c0-.437.38-.824.816-.824h5.187c.434 0 .817.383.817.824v4.013h1.828zm-2.689 13.896a.787.787 0 00.04-.249v-6.195H9.836v6.195c0 .104.02.192.04.249h5.086zM9.876 8.877a.79.79 0 00-.044.25V11.3h5.163V9.126a.718.718 0 00-.044-.249H9.876zm5.243-.981c.521 0 .83.628.83 1.233v9.355c0 .598-.292 1.234-.83 1.234H9.714c-.538 0-.83-.636-.83-1.234V9.129c0-.608.31-1.233.83-1.233h5.405z" fill="#5CB615" fill-rule="nonzero"/></svg>
